dist/images/clip.svg

<svg width="22" height="20" viewBox="0 0 22 20" fill="none" xmlns="http://www.w3.org/2000/svg">
<path d="M19.5841 2.41247C17.6962 0.529178 14.6244 0.529178 12.7366 2.41247L1.60683 13.5154C0.797725 14.3225 0.797725 15.6357 1.60683 16.4429L3.56327 18.3946C4.37237 19.2018 5.68878 19.2018 6.49792 18.3946L15.1426 9.77081C15.9517 8.96366 15.9517 7.65044 15.1426 6.84325C14.3335 6.03607 13.0171 6.03611 12.208 6.84325L7.60081 11.4393C7.33069 11.7087 7.33069 12.1456 7.60081 12.4151C7.87093 12.6846 8.3089 12.6846 8.57901 12.4151L13.1862 7.81909C13.4558 7.5501 13.8946 7.54998 14.1644 7.81909C14.4341 8.08821 14.434 8.52597 14.1644 8.79493L5.51972 17.4187C5.25007 17.6877 4.81124 17.6878 4.54151 17.4187L2.58507 15.467C2.3153 15.1979 2.31542 14.7601 2.58507 14.4912L13.7148 3.38834C15.0632 2.0432 17.2573 2.04309 18.6058 3.38834C19.9544 4.7336 19.9542 6.92248 18.6058 8.26758L11.5137 15.3426C11.2435 15.6121 11.2435 16.049 11.5137 16.3185C11.7838 16.5879 12.2217 16.5879 12.4919 16.3185L19.584 9.24342C21.472 7.36013 21.472 4.29583 19.5841 2.41247Z" fill="#000"  stroke-width="0.25"/>
</svg>

<svg width="22" height="20" fill="none" xmlns="http://www.w3.org/2000/svg"><path d="M19.584 2.412a4.856 4.856 0 00-6.847 0L1.607 13.515c-.81.807-.81 2.12 0 2.928l1.956 1.952a2.08 2.08 0 002.935 0l8.645-8.624c.809-.807.809-2.12 0-2.928a2.08 2.08 0 00-2.935 0L7.601 11.44a.689.689 0 000 .976c.27.27.708.27.978 0l4.607-4.596a.69.69 0 11.978.976L5.52 17.419a.694.694 0 01-.978 0l-1.957-1.952a.69.69 0 010-.976l11.13-11.103a3.468 3.468 0 014.89 0 3.448 3.448 0 010 4.88l-7.091 7.075a.689.689 0 000 .976c.27.269.708.269.978 0l7.092-7.076a4.827 4.827 0 000-6.83z" fill="#000" stroke-width=".25"/></svg>
